Sources/FrostedUI/Resources/Icons.xcassets/starFilled32.imageset/star-filled-32.svg

<svg width="32" height="32" viewBox="0 0 32 32" fill="none" xmlns="http://www.w3.org/2000/svg" data-fui-icon="true">
  <path
    d="M13.7781 2.77838C14.7557 1.07404 17.2449 1.07398 18.2224 2.77838L18.3152 2.95416L21.5408 9.66998L28.9685 10.6426C31.103 10.9224 31.9764 13.5569 30.3972 15.046L24.9724 20.1602L26.3347 27.4669C26.7319 29.5992 24.476 31.2049 22.5916 30.1895L15.9998 26.6368L9.40991 30.1895C7.52547 31.2053 5.26848 29.5997 5.66577 27.4669L7.0271 20.1602L1.60327 15.046C0.0238053 13.5568 0.897189 10.9221 3.03198 10.6426L10.4587 9.66998L13.6853 2.95416L13.7781 2.77838ZM8.3855 28.9786C8.39984 28.9759 8.41412 28.9731 8.42847 28.9698C8.41414 28.9731 8.39982 28.9758 8.3855 28.9786ZM8.51147 28.9464C8.52358 28.9425 8.53652 28.941 8.54858 28.9366L8.57104 28.9258C8.55126 28.9335 8.53133 28.94 8.51147 28.9464ZM15.74 25.1104C15.6546 25.1318 15.5712 25.1644 15.4919 25.2071L8.69702 28.8692C8.68917 28.8734 8.68048 28.8759 8.67261 28.8799L8.698 28.8692L15.4919 25.2071C15.5314 25.1859 15.5718 25.1674 15.613 25.1514C15.6547 25.1353 15.6971 25.1221 15.74 25.1114V25.1104ZM24.8591 27.7413C24.8792 27.849 24.8824 27.9538 24.8718 28.0538C24.877 28.0047 24.8796 27.9545 24.8777 27.9034L24.8601 27.7413L23.4539 20.1993H23.4529L24.8591 27.7413ZM7.12183 27.8936C7.12171 27.8962 7.12193 27.8988 7.12183 27.9014C7.12388 27.849 7.13028 27.7955 7.14038 27.7413L7.12183 27.8936ZM29.4519 13.8672C29.4261 13.8976 29.398 13.9268 29.3679 13.9551L23.7683 19.2335C23.7515 19.2493 23.7371 19.2674 23.7214 19.2842C23.7372 19.2673 23.7523 19.2494 23.7693 19.2335L29.3689 13.9551C29.429 13.8984 29.4802 13.8374 29.5232 13.7735L29.4519 13.8672ZM28.7732 12.1299C28.7921 12.1324 28.8104 12.1373 28.8289 12.1407L28.7742 12.1299L21.115 11.127L28.7732 12.1299ZM11.1423 11.0596C11.0608 11.0921 10.9747 11.1153 10.8855 11.127L11.0173 11.1016C11.0601 11.0904 11.1016 11.0759 11.1423 11.0596ZM11.5642 10.7549C11.5077 10.8223 11.4436 10.8825 11.3728 10.9337L11.4744 10.8506C11.5064 10.8209 11.536 10.7886 11.5642 10.7549ZM20.2908 10.5323C20.3103 10.573 20.333 10.6121 20.3572 10.6495L20.2917 10.5323L16.9626 3.60358L20.2908 10.5323Z"
    fill="currentColor"
  />
</svg>

<svg xmlns="http://www.w3.org/2000/svg" width="32" height="32" fill="none" data-fui-icon="true" viewBox="0 0 32 32"><path fill="currentColor" d="M13.778 2.778c.978-1.704 3.467-1.704 4.444 0l.093.176 3.226 6.716 7.427.973c2.135.28 3.008 2.914 1.43 4.403l-5.426 5.114 1.363 7.307c.397 2.132-1.859 3.738-3.743 2.723L16 26.636l-6.59 3.552c-1.885 1.016-4.142-.59-3.744-2.722l1.361-7.307-5.424-5.114c-1.58-1.49-.706-4.124 1.429-4.403l7.427-.973 3.226-6.716zm-5.392 26.2.042-.008zm.125-.032q.02-.004.038-.01l.022-.01q-.03.012-.06.02m7.229-3.836a1 1 0 0 0-.248.097L8.697 28.87l-.024.01.025-.01 6.794-3.662a1 1 0 0 1 .248-.096m9.12 2.631a1 1 0 0 1 .018.162zL23.454 20.2h-.001zm-17.738.153v.007q.003-.078.018-.16zm22.33-14.027q-.039.046-.084.088l-5.6 5.278q-.023.025-.047.051.023-.027.048-.05l5.6-5.279q.09-.086.154-.181zm-.679-1.737q.029.004.056.01l-.055-.01-7.659-1.003zm-17.63-1.07a1 1 0 0 1-.258.067l.132-.025q.065-.018.125-.042m.421-.305q-.084.1-.191.179l.101-.083q.048-.045.09-.096m8.727-.223q.03.062.066.117zl-3.33-6.928z"/></svg>
